X:1
T:Little Is Much When God Is in It
T:Kittie Louise Suffield, 1924
T:Little Is Much When God Is in It
T:Public Domain
T:Public Domain
C:Kittie Louise Suffield, 1924
Z:Public Domain
%%score ( 1 2 ) 3
L:1/8
M:3/4
K:D
V:1 treble 
V:2 treble 
V:3 bass 
V:1
 [DF]>[DE] | D3 [A,E] [DF][CE] | [DF] [FA]3 [GB]>[GB] | [FA]3 [DF] [DE][DF] | [CE]4 [CF]>[CE] | %5
w: 1.~In the|har- vest field now|rip- ened There’s a|work for all to|do; Hark! the|
w: 2.~In the|mad rush of the|broad way, In the|hur- ry and the|strife, Tell of|
w: 3.~Does the|place you’re called to|la- bor Seem too|small and lit- tle|known? It is|
w: 4.~Are you|laid a- side from|ser- vice, Bo- dy|worn from toil and|care? You can|
w: 5.~When the|con- flict here is|end- ed And our|race on earth is|run, He will|
 D3 [A,E] [DF][CE] | [DF] [FA]3 [GB]>[GB] | [FA]3 D [CF][CE] | D4 ||"^Refrain" (3[Fd][Fd][Fd] | %10
w: voice of God is|call- ing To the|har- vest call- ing|||
w: Je- sus’ love and|mer- cy, Give to|them the Word of|||
w: great if God is|in it, And He’ll|not for- get His|||
w: still be in the|bat- tle, In the|sac- red place of|||
w: say, if we are|faith- ful, “Wel- come|home, My child— well|||
 [Fd]3 [FA] [GB][FA] | [DF] [FA]3 [Fd]>[Fd] | [Fd]3 [GB] [FA][DF] | [CE]4 [CF]>[CE] | %14
w: ||||
w: ||||
w: ||||
w: ||||
w: ||||
 D3 [A,E] [DF][CE] | [DF] [FA]3 [GB]>[^EB] | [FA]3 D [CF][CE] | [A,D]4 |] %18
w: ||||
w: ||||
w: ||||
w: ||||
w: ||||
V:2
 x2 | x6 | x6 | x6 | x6 | x6 | x6 | x3 D x2 | D4 || x2 | x6 | x6 | x6 | x6 | x6 | x6 | x6 | x4 |] %18
w: |||||||you.|||||||||||
w: |||||||Life.|||||||||||
w: |||||||own.|||||||||||
w: |||||||prayer.|||||||||||
w: |||||||done!”|||||||||||
V:3
 [D,A,]>[D,G,] | [D,F,]3 [D,G,] [D,A,][A,,A,] | [D,A,] [D,D]3 [G,,D]>[G,,D] | %3
w: ~ ~|~ ~ ~ ~|~ ~ ~ ~|
 [D,D]3 [D,A,] [E,^G,][E,G,] | [A,,A,]4 [A,,A,]>[A,,G,] | [D,F,]3 [D,G,] [D,A,][A,,A,] | %6
w: ~ ~ ~ ~|~ ~ ~|~ ~ ~ ~|
 [D,A,] [D,D]3 [G,,D]>[G,,D] | [A,,D]3 [A,,F,] [A,,A,][A,,G,] | [D,F,]4 || (3[D,A,][D,A,][D,A,] | %10
w: ~ ~ ~ ~|~ ~ ~ ~|~|Lit- tle is|
 [D,A,]3 [D,D] [D,D][D,D] | [D,A,] [D,D]3 [D,A,]>[D,A,] | [D,A,]3 [D,D] [D,D][D,A,] | %13
w: much when God is|in it! La- bor|not for wealth or|
 [A,,A,]4 [A,,A,]>[A,,G,] | [D,F,]3 [D,G,] [D,A,][A,,A,] | [D,A,] [D,D]3 [G,,D]>[^G,,D] | %16
w: fame. There’s a|crown— and you can|win it, If you|
 [A,,D]3 [B,,^G,] [A,,A,][A,,=G,] | [D,F,]4 |] %18
w: go in Je- sus’|name.|

